; G-Code generated by Simplify3D(R) Version 4.0.1
; Jan 13, 2020 at 6:53:49 PM
; Settings Summary
;   processName,Process1
;   applyToModels,Part1,Part2
;   profileName,h13-01 (modified)
;   profileVersion,2019-08-25 18:09:29
;   baseProfile,Default (modified)
;   printMaterial,PLA
;   printQuality,High
;   printExtruders,
;   extruderName,Primary Extruder
;   extruderToolheadNumber,0
;   extruderDiameter,0.4
;   extruderAutoWidth,1
;   extruderWidth,0.48
;   extrusionMultiplier,1.2
;   extruderUseRetract,1
;   extruderRetractionDistance,1
;   extruderExtraRestartDistance,0
;   extruderRetractionZLift,0
;   extruderRetractionSpeed,1800
;   extruderUseCoasting,0
;   extruderCoastingDistance,0.2
;   extruderUseWipe,0
;   extruderWipeDistance,5
;   primaryExtruder,0
;   layerHeight,0.1
;   topSolidLayers,3
;   bottomSolidLayers,3
;   perimeterOutlines,2
;   printPerimetersInsideOut,1
;   startPointOption,2
;   startPointOriginX,0
;   startPointOriginY,0
;   sequentialIslands,0
;   spiralVaseMode,0
;   firstLayerHeightPercentage,90
;   firstLayerWidthPercentage,100
;   firstLayerUnderspeed,0.5
;   useRaft,0
;   raftExtruder,0
;   raftTopLayers,3
;   raftBaseLayers,2
;   raftOffset,3
;   raftSeparationDistance,0.14
;   raftTopInfill,100
;   aboveRaftSpeedMultiplier,0.3
;   useSkirt,0
;   skirtExtruder,0
;   skirtLayers,2
;   skirtOutlines,2
;   skirtOffset,4
;   usePrimePillar,0
;   primePillarExtruder,999
;   primePillarWidth,12
;   primePillarLocation,7
;   primePillarSpeedMultiplier,1
;   useOozeShield,0
;   oozeShieldExtruder,999
;   oozeShieldOffset,2
;   oozeShieldOutlines,1
;   oozeShieldSidewallShape,1
;   oozeShieldSidewallAngle,30
;   oozeShieldSpeedMultiplier,1
;   infillExtruder,0
;   internalInfillPattern,Rectilinear
;   externalInfillPattern,Rectilinear
;   infillPercentage,100
;   outlineOverlapPercentage,15
;   infillExtrusionWidthPercentage,100
;   minInfillLength,5
;   infillLayerInterval,1
;   internalInfillAngles,45,-45
;   overlapInternalInfillAngles,0
;   externalInfillAngles,45,-45
;   generateSupport,1
;   supportExtruder,0
;   supportInfillPercentage,25
;   supportExtraInflation,0
;   supportBaseLayers,0
;   denseSupportExtruder,0
;   denseSupportLayers,0
;   denseSupportInfillPercentage,70
;   supportLayerInterval,1
;   supportHorizontalPartOffset,0.3
;   supportUpperSeparationLayers,1
;   supportLowerSeparationLayers,1
;   supportType,0
;   supportGridSpacing,4
;   maxOverhangAngle,45
;   supportAngles,0
;   temperatureName,Primary Extruder
;   temperatureNumber,0
;   temperatureSetpointCount,1
;   temperatureSetpointLayers,1
;   temperatureSetpointTemperatures,207
;   temperatureStabilizeAtStartup,1
;   temperatureHeatedBed,0
;   temperatureRelayBetweenLayers,0
;   temperatureRelayBetweenLoops,0
;   fanLayers,1,2
;   fanSpeeds,100,100
;   blipFanToFullPower,0
;   adjustSpeedForCooling,1
;   minSpeedLayerTime,15
;   minCoolingSpeedSlowdown,20
;   increaseFanForCooling,0
;   minFanLayerTime,45
;   maxCoolingFanSpeed,100
;   increaseFanForBridging,0
;   bridgingFanSpeed,100
;   use5D,1
;   relativeEdistances,0
;   allowEaxisZeroing,1
;   independentExtruderAxes,0
;   includeM10123,0
;   stickySupport,1
;   applyToolheadOffsets,0
;   gcodeXoffset,0
;   gcodeYoffset,0
;   gcodeZoffset,2.6
;   overrideMachineDefinition,0
;   machineTypeOverride,0
;   strokeXoverride,200
;   strokeYoverride,200
;   strokeZoverride,200
;   originOffsetXoverride,0
;   originOffsetYoverride,0
;   originOffsetZoverride,0
;   homeXdirOverride,-1
;   homeYdirOverride,-1
;   homeZdirOverride,-1
;   flipXoverride,1
;   flipYoverride,-1
;   flipZoverride,1
;   toolheadOffsets,0,0|0,0|0,0|0,0|0,0|0,0
;   overrideFirmwareConfiguration,0
;   firmwareTypeOverride,RepRap (Marlin/Repetier/Sprinter)
;   GPXconfigOverride,r2
;   baudRateOverride,115200
;   overridePrinterModels,0
;   printerModelsOverride
;   startingGcode,G28 ; home all axes
;   layerChangeGcode,
;   retractionGcode,
;   toolChangeGcode,
;   endingGcode,M104 S0 ; turn off extruder,M140 S0 ; turn off bed,M84 ; disable motors,G1 X0.000 Y0.000 E-1.0000
;   exportFileFormat,gcode
;   celebration,0
;   celebrationSong,Random Song
;   postProcessing,
;   defaultSpeed,3600
;   outlineUnderspeed,0.5
;   solidInfillUnderspeed,0.8
;   supportUnderspeed,0.8
;   rapidXYspeed,4800
;   rapidZspeed,1000
;   minBridgingArea,50
;   bridgingExtraInflation,0
;   bridgingExtrusionMultiplier,1
;   bridgingSpeedMultiplier,1
;   useFixedBridgingAngle,0
;   fixedBridgingAngle,0
;   applyBridgingToPerimeters,0
;   filamentDiameters,1.75|1.75|1.75|1.75|1.75|1.75
;   filamentPricesPerKg,46|46|46|46|46|46
;   filamentDensities,1.25|1.25|1.25|1.25|1.25|1.25
;   useMinPrintHeight,0
;   minPrintHeight,0
;   useMaxPrintHeight,0
;   maxPrintHeight,0
;   useDiaphragm,0
;   diaphragmLayerInterval,20
;   robustSlicing,1
;   mergeAllIntoSolid,0
;   onlyRetractWhenCrossingOutline,1
;   retractBetweenLayers,1
;   useRetractionMinTravel,0
;   retractionMinTravel,3
;   retractWhileWiping,0
;   onlyWipeOutlines,1
;   avoidCrossingOutline,0
;   maxMovementDetourFactor,3
;   toolChangeRetractionDistance,12
;   toolChangeExtraRestartDistance,-0.5
;   toolChangeRetractionSpeed,600
;   externalThinWallType,0
;   internalThinWallType,2
;   thinWallAllowedOverlapPercentage,10
;   singleExtrusionMinLength,1
;   singleExtrusionMinPrintingWidthPercentage,50
;   singleExtrusionMaxPrintingWidthPercentage,200
;   singleExtrusionEndpointExtension,0.2
;   horizontalSizeCompensation,0
G90
M82
M106 S255
M104 S207 T0
M109 S207 T0
G28 ; home all axes
G92 E0
G1 E-1.0000 F1800
G1 Z2.690 F1000
; process Process1
; layer 1, Z = 0.090
T0
; tool H0.100 W0.480
; inner perimeter
G1 X73.364 Y74.846 F4800
G1 E0.0000 F540
G92 E0
G1 X73.517 Y74.716 E0.0048 F1350
G1 X73.688 Y74.612 E0.0096
G1 X73.873 Y74.535 E0.0144
G1 X74.068 Y74.488 E0.0192
G1 X74.296 Y74.470 E0.0247
G1 X95.740 Y74.470 E0.5382
G1 X95.968 Y74.488 E0.5437
G1 X96.163 Y74.535 E0.5485
G1 X96.348 Y74.611 E0.5533
G1 X96.519 Y74.716 E0.5581
G1 X96.671 Y74.847 E0.5629
G1 X96.802 Y74.999 E0.5677
G1 X96.906 Y75.170 E0.5725
G1 X96.983 Y75.355 E0.5773
G1 X97.030 Y75.549 E0.5821
G1 X97.048 Y75.786 E0.5878
G1 X97.048 Y92.030 E0.9768
G1 X72.988 Y92.030 E1.5529
G1 X72.988 Y75.778 E1.9421
G1 X73.006 Y75.550 E1.9476
G1 X73.053 Y75.355 E1.9524
G1 X73.129 Y75.170 E1.9572
G1 X73.234 Y74.999 E1.9620
G1 X73.364 Y74.846 E1.9668
; outer perimeter
G1 X73.024 Y74.506 F4800
G92 E0
G1 X73.234 Y74.327 E0.0066 F900
G1 X73.469 Y74.182 E0.0132
G1 X73.724 Y74.077 E0.0198
G1 X73.993 Y74.012 E0.0264
G1 X74.277 Y73.990 E0.0333
G1 X95.759 Y73.990 E0.5477
G1 X96.043 Y74.012 E0.5545
G1 X96.312 Y74.077 E0.5611
G1 X96.567 Y74.182 E0.5678
G1 X96.802 Y74.327 E0.5744
G1 X97.012 Y74.506 E0.5810
G1 X97.191 Y74.716 E0.5876
G1 X97.335 Y74.951 E0.5942
G1 X97.441 Y75.206 E0.6008
G1 X97.505 Y75.475 E0.6074
G1 X97.528 Y75.768 E0.6145
G1 X97.528 Y92.510 E1.0154
G1 X72.508 Y92.510 E1.6145
G1 X72.508 Y75.759 E2.0157
G1 X72.530 Y75.475 E2.0225
G1 X72.595 Y75.206 E2.0291
G1 X72.700 Y74.951 E2.0357
G1 X72.845 Y74.716 E2.0424
G1 X73.024 Y74.506 E2.0490
; solid layer
G1 X73.396 Y91.045 F4800
G92 E0
G1 X73.973 Y91.622 E0.0195 F1440
G1 X74.651 Y91.622 E0.0358
G1 X73.396 Y90.366 E0.0783
G1 X73.396 Y89.688 E0.0946
G1 X75.330 Y91.622 E0.1601
G1 X76.009 Y91.622 E0.1763
G1 X73.396 Y89.009 E0.2648
G1 X73.396 Y88.330 E0.2811
G1 X76.688 Y91.622 E0.3926
G1 X77.367 Y91.622 E0.4088
G1 X73.396 Y87.651 E0.5433
G1 X73.396 Y86.972 E0.5596
G1 X78.046 Y91.622 E0.7170
G1 X78.724 Y91.622 E0.7333
G1 X73.396 Y86.294 E0.9137
G1 X73.396 Y85.615 E0.9300
G1 X79.403 Y91.622 E1.1334
G1 X80.082 Y91.622 E1.1497
G1 X73.396 Y84.936 E1.3761
G1 X73.396 Y84.257 E1.3924
G1 X80.761 Y91.622 E1.6418
G1 X81.440 Y91.622 E1.6581
G1 X73.396 Y83.578 E1.9305
G1 X73.396 Y82.899 E1.9467
G1 X82.118 Y91.622 E2.2421
G1 X82.797 Y91.622 E2.2584
G1 X73.396 Y82.221 E2.5768
G1 X73.396 Y81.542 E2.5930
G1 X83.476 Y91.622 E2.9344
G1 X84.155 Y91.622 E2.9507
G1 X73.396 Y80.863 E3.3151
G1 X73.396 Y80.184 E3.3313
G1 X84.834 Y91.622 E3.7187
G1 X85.513 Y91.622 E3.7349
G1 X73.396 Y79.505 E4.1453
G1 X73.396 Y78.827 E4.1615
G1 X86.191 Y91.622 E4.5949
G1 X86.870 Y91.622 E4.6111
G1 X73.396 Y78.148 E5.0675
G1 X73.396 Y77.469 E5.0837
G1 X87.549 Y91.622 E5.5630
G1 X88.228 Y91.622 E5.5793
G1 X73.396 Y76.790 E6.0816
G1 X73.396 Y76.111 E6.0979
G1 X88.907 Y91.622 E6.6231
G1 X89.586 Y91.622 E6.6394
G1 X73.443 Y75.479 E7.1861
G1 X73.494 Y75.356 E7.1893
G1 X73.565 Y75.239 E7.1926
G1 X73.654 Y75.136 E7.1958
G1 X73.721 Y75.079 E7.1979
G1 X90.264 Y91.622 E7.7582
G1 X90.943 Y91.622 E7.7745
G1 X74.207 Y74.886 E8.3413
G1 X74.312 Y74.878 E8.3438
G1 X74.878 Y74.878 E8.3573
G1 X91.622 Y91.622 E8.9244
G1 X92.301 Y91.622 E8.9406
G1 X75.557 Y74.878 E9.5077
G1 X76.236 Y74.878 E9.5240
G1 X92.980 Y91.622 E10.0910
G1 X93.658 Y91.622 E10.1073
G1 X76.914 Y74.878 E10.6743
G1 X77.593 Y74.878 E10.6906
G1 X94.337 Y91.622 E11.2577
G1 X95.016 Y91.622 E11.2739
G1 X78.272 Y74.878 E11.8410
G1 X78.951 Y74.878 E11.8572
G1 X95.695 Y91.622 E12.4243
G1 X96.374 Y91.622 E12.4406
G1 X79.630 Y74.878 E13.0076
G1 X80.309 Y74.878 E13.0239
G1 X96.640 Y91.209 E13.5770
G1 X96.640 Y90.531 E13.5932
G1 X80.987 Y74.878 E14.1233
G1 X81.666 Y74.878 E14.1396
G1 X96.640 Y89.852 E14.6467
G1 X96.640 Y89.173 E14.6629
G1 X82.345 Y74.878 E15.1470
G1 X83.024 Y74.878 E15.1633
G1 X96.640 Y88.494 E15.6244
G1 X96.640 Y87.815 E15.6407
G1 X83.703 Y74.878 E16.0788
G1 X84.382 Y74.878 E16.0951
G1 X96.640 Y87.136 E16.5102
G1 X96.640 Y86.458 E16.5265
G1 X85.060 Y74.878 E16.9187
G1 X85.739 Y74.878 E16.9349
G1 X96.640 Y85.779 E17.3041
G1 X96.640 Y85.100 E17.3203
G1 X86.418 Y74.878 E17.6665
G1 X87.097 Y74.878 E17.6828
G1 X96.640 Y84.421 E18.0060
G1 X96.640 Y83.742 E18.0222
G1 X87.776 Y74.878 E18.3224
G1 X88.454 Y74.878 E18.3387
G1 X96.640 Y83.063 E18.6159
G1 X96.640 Y82.385 E18.6322
G1 X89.133 Y74.878 E18.8864
G1 X89.812 Y74.878 E18.9026
G1 X96.640 Y81.706 E19.1339
G1 X96.640 Y81.027 E19.1501
G1 X90.491 Y74.878 E19.3584
G1 X91.170 Y74.878 E19.3746
G1 X96.640 Y80.348 E19.5599
G1 X96.640 Y79.669 E19.5761
G1 X91.849 Y74.878 E19.7384
G1 X92.527 Y74.878 E19.7547
G1 X96.640 Y78.991 E19.8939
G1 X96.640 Y78.312 E19.9102
G1 X93.206 Y74.878 E20.0265
G1 X93.885 Y74.878 E20.0427
G1 X96.640 Y77.633 E20.1360
G1 X96.640 Y76.954 E20.1523
G1 X94.564 Y74.878 E20.2226
G1 X95.243 Y74.878 E20.2389
G1 X96.640 Y76.275 E20.2862
G1 X96.640 Y75.802 E20.2975
G1 X96.625 Y75.613 E20.3021
G1 X96.616 Y75.572 E20.3031
G1 X95.946 Y74.902 E20.3258
G92 E0
G1 E-1.0000 F1800
; inner perimeter
G1 X103.519 Y75.510 F4800
G1 E0.0000 F1800
G92 E0
G1 X103.533 Y75.329 E0.0044 F1350
G1 X103.569 Y75.179 E0.0080
G1 X103.628 Y75.037 E0.0117
G1 X103.708 Y74.907 E0.0154
G1 X103.808 Y74.790 E0.0191
G1 X103.924 Y74.690 E0.0228
G1 X104.055 Y74.610 E0.0264
G1 X104.197 Y74.551 E0.0301
G1 X104.347 Y74.515 E0.0338
G1 X104.528 Y74.501 E0.0382
G1 X125.972 Y74.501 E0.5517
G1 X126.153 Y74.515 E0.5560
G1 X126.303 Y74.551 E0.5597
G1 X126.445 Y74.610 E0.5634
G1 X126.576 Y74.690 E0.5671
G1 X126.692 Y74.790 E0.5707
G1 X126.792 Y74.907 E0.5744
G1 X126.872 Y75.037 E0.5781
G1 X126.931 Y75.179 E0.5818
G1 X126.967 Y75.329 E0.5855
G1 X126.981 Y75.510 E0.5898
G1 X126.981 Y123.954 E1.7499
G1 X126.967 Y124.135 E1.7543
G1 X126.931 Y124.285 E1.7579
G1 X126.872 Y124.427 E1.7616
G1 X126.792 Y124.558 E1.7653
G1 X126.692 Y124.674 E1.7690
G1 X126.576 Y124.774 E1.7727
G1 X126.445 Y124.854 E1.7763
G1 X126.303 Y124.913 E1.7800
G1 X126.153 Y124.949 E1.7837
G1 X125.972 Y124.963 E1.7881
G1 X104.528 Y124.963 E2.3016
G1 X104.347 Y124.949 E2.3059
G1 X104.197 Y124.913 E2.3096
G1 X104.055 Y124.854 E2.3133
G1 X103.924 Y124.774 E2.3170
G1 X103.808 Y124.674 E2.3206
G1 X103.708 Y124.558 E2.3243
G1 X103.628 Y124.427 E2.3280
G1 X103.569 Y124.285 E2.3317
G1 X103.533 Y124.135 E2.3354
G1 X103.519 Y123.954 E2.3397
G1 X103.519 Y75.510 E3.4998
; outer perimeter
G1 X103.039 Y75.491 F4800
G92 E0
G1 X103.057 Y75.254 E0.0057 F900
G1 X103.111 Y75.031 E0.0112
G1 X103.199 Y74.819 E0.0167
G1 X103.318 Y74.624 E0.0222
G1 X103.467 Y74.449 E0.0277
G1 X103.641 Y74.300 E0.0332
G1 X103.837 Y74.181 E0.0386
G1 X104.049 Y74.093 E0.0441
G1 X104.272 Y74.039 E0.0496
G1 X104.509 Y74.021 E0.0553
G1 X125.991 Y74.021 E0.5698
G1 X126.228 Y74.039 E0.5755
G1 X126.451 Y74.093 E0.5810
G1 X126.663 Y74.181 E0.5864
G1 X126.858 Y74.300 E0.5919
G1 X127.033 Y74.449 E0.5974
G1 X127.182 Y74.624 E0.6029
G1 X127.301 Y74.819 E0.6084
G1 X127.389 Y75.031 E0.6139
G1 X127.443 Y75.254 E0.6194
G1 X127.461 Y75.491 E0.6251
G1 X127.461 Y123.973 E1.7861
G1 X127.443 Y124.211 E1.7918
G1 X127.389 Y124.433 E1.7973
G1 X127.301 Y124.645 E1.8028
G1 X127.182 Y124.841 E1.8083
G1 X127.033 Y125.015 E1.8138
G1 X126.858 Y125.164 E1.8192
G1 X126.663 Y125.283 E1.8247
G1 X126.451 Y125.371 E1.8302
G1 X126.228 Y125.425 E1.8357
G1 X125.991 Y125.443 E1.8414
G1 X104.509 Y125.443 E2.3558
G1 X104.272 Y125.425 E2.3616
G1 X104.049 Y125.371 E2.3670
G1 X103.837 Y125.283 E2.3725
G1 X103.641 Y125.164 E2.3780
G1 X103.467 Y125.015 E2.3835
G1 X103.318 Y124.841 E2.3890
G1 X103.199 Y124.645 E2.3945
G1 X103.111 Y124.433 E2.4000
G1 X103.057 Y124.211 E2.4055
G1 X103.039 Y123.973 E2.4112
G1 X103.039 Y75.491 E3.5722
; inner perimeter
G1 X105.527 Y84.995 F4800
G92 E0
G1 X105.526 Y106.039 E0.5039 F1350
G1 X105.579 Y107.036 E0.5279
G1 X105.738 Y108.042 E0.5522
G1 X106.001 Y109.025 E0.5766
G1 X106.366 Y109.975 E0.6010
G1 X106.828 Y110.882 E0.6254
G1 X107.383 Y111.736 E0.6497
G1 X108.023 Y112.527 E0.6741
G1 X108.743 Y113.246 E0.6985
G1 X109.534 Y113.887 E0.7229
G1 X110.388 Y114.441 E0.7472
G1 X111.295 Y114.904 E0.7716
G1 X112.245 Y115.268 E0.7960
G1 X113.228 Y115.532 E0.8204
G1 X114.234 Y115.691 E0.8447
G1 X115.250 Y115.744 E0.8691
G1 X116.266 Y115.691 E0.8935
G1 X117.272 Y115.532 E0.9179
G1 X118.255 Y115.268 E0.9422
G1 X119.205 Y114.904 E0.9666
G1 X120.112 Y114.441 E0.9910
G1 X120.966 Y113.887 E1.0154
G1 X121.757 Y113.246 E1.0397
G1 X122.477 Y112.527 E1.0641
G1 X123.117 Y111.736 E1.0885
G1 X123.672 Y110.882 E1.1129
G1 X124.134 Y109.975 E1.1372
G1 X124.499 Y109.025 E1.1616
G1 X124.762 Y108.042 E1.1860
G1 X124.921 Y107.036 E1.2104
G1 X124.974 Y106.039 E1.2343
G1 X124.973 Y84.995 E1.7382
G1 X123.649 Y84.563 E1.7716
G1 X122.009 Y84.110 E1.8123
G1 X120.341 Y83.755 E1.8532
G1 X118.654 Y83.500 E1.8940
G1 X116.955 Y83.347 E1.9349
G1 X115.250 Y83.296 E1.9757
G1 X113.545 Y83.347 E2.0166
G1 X111.846 Y83.500 E2.0574
G1 X110.159 Y83.755 E2.0983
G1 X108.491 Y84.110 E2.1391
G1 X106.851 Y84.563 E2.1799
G1 X105.527 Y84.995 E2.2132
; outer perimeter
G1 X106.007 Y85.343 F4800
G92 E0
G1 X106.006 Y106.026 E0.4953 F900
G1 X106.057 Y106.986 E0.5183
G1 X106.208 Y107.942 E0.5415
G1 X106.459 Y108.876 E0.5647
G1 X106.805 Y109.780 E0.5878
G1 X107.245 Y110.642 E0.6110
G1 X107.772 Y111.453 E0.6342
G1 X108.380 Y112.205 E0.6573
G1 X109.065 Y112.889 E0.6805
G1 X109.817 Y113.498 E0.7037
G1 X110.628 Y114.025 E0.7268
G1 X111.490 Y114.464 E0.7500
G1 X112.393 Y114.811 E0.7732
G1 X113.328 Y115.062 E0.7964
G1 X114.284 Y115.213 E0.8195
G1 X115.250 Y115.264 E0.8427
G1 X116.216 Y115.213 E0.8659
G1 X117.172 Y115.062 E0.8890
G1 X118.106 Y114.811 E0.9122
G1 X119.010 Y114.464 E0.9354
G1 X119.872 Y114.025 E0.9586
G1 X120.683 Y113.498 E0.9817
G1 X121.435 Y112.889 E1.0049
G1 X122.120 Y112.205 E1.0281
G1 X122.728 Y111.453 E1.0512
G1 X123.255 Y110.642 E1.0744
G1 X123.695 Y109.780 E1.0976
G1 X124.041 Y108.876 E1.1208
G1 X124.292 Y107.942 E1.1439
G1 X124.443 Y106.986 E1.1671
G1 X124.494 Y106.026 E1.1901
G1 X124.493 Y85.343 E1.6854
