; G-Code generated by Simplify3D(R) Version 4.0.1
; Jan 13, 2020 at 3:08:58 AM
; Settings Summary
;   processName,Process1
;   applyToModels,Part2
;   profileName,h13-01 (modified)
;   profileVersion,2019-08-25 18:09:29
;   baseProfile,Default (modified)
;   printMaterial,PLA
;   printQuality,High
;   printExtruders,
;   extruderName,Primary Extruder
;   extruderToolheadNumber,0
;   extruderDiameter,0.4
;   extruderAutoWidth,1
;   extruderWidth,0.48
;   extrusionMultiplier,1.15
;   extruderUseRetract,1
;   extruderRetractionDistance,1
;   extruderExtraRestartDistance,0
;   extruderRetractionZLift,0
;   extruderRetractionSpeed,1800
;   extruderUseCoasting,0
;   extruderCoastingDistance,0.2
;   extruderUseWipe,0
;   extruderWipeDistance,5
;   primaryExtruder,0
;   layerHeight,0.1
;   topSolidLayers,3
;   bottomSolidLayers,3
;   perimeterOutlines,2
;   printPerimetersInsideOut,1
;   startPointOption,2
;   startPointOriginX,0
;   startPointOriginY,0
;   sequentialIslands,0
;   spiralVaseMode,0
;   firstLayerHeightPercentage,90
;   firstLayerWidthPercentage,100
;   firstLayerUnderspeed,0.5
;   useRaft,0
;   raftExtruder,0
;   raftTopLayers,3
;   raftBaseLayers,2
;   raftOffset,3
;   raftSeparationDistance,0.14
;   raftTopInfill,100
;   aboveRaftSpeedMultiplier,0.3
;   useSkirt,0
;   skirtExtruder,0
;   skirtLayers,2
;   skirtOutlines,2
;   skirtOffset,4
;   usePrimePillar,0
;   primePillarExtruder,999
;   primePillarWidth,12
;   primePillarLocation,7
;   primePillarSpeedMultiplier,1
;   useOozeShield,0
;   oozeShieldExtruder,999
;   oozeShieldOffset,2
;   oozeShieldOutlines,1
;   oozeShieldSidewallShape,1
;   oozeShieldSidewallAngle,30
;   oozeShieldSpeedMultiplier,1
;   infillExtruder,0
;   internalInfillPattern,Rectilinear
;   externalInfillPattern,Rectilinear
;   infillPercentage,100
;   outlineOverlapPercentage,15
;   infillExtrusionWidthPercentage,100
;   minInfillLength,5
;   infillLayerInterval,1
;   internalInfillAngles,45,-45
;   overlapInternalInfillAngles,0
;   externalInfillAngles,45,-45
;   generateSupport,1
;   supportExtruder,0
;   supportInfillPercentage,25
;   supportExtraInflation,0
;   supportBaseLayers,0
;   denseSupportExtruder,0
;   denseSupportLayers,0
;   denseSupportInfillPercentage,70
;   supportLayerInterval,1
;   supportHorizontalPartOffset,0.3
;   supportUpperSeparationLayers,1
;   supportLowerSeparationLayers,1
;   supportType,0
;   supportGridSpacing,4
;   maxOverhangAngle,45
;   supportAngles,0
;   temperatureName,Primary Extruder
;   temperatureNumber,0
;   temperatureSetpointCount,1
;   temperatureSetpointLayers,1
;   temperatureSetpointTemperatures,207
;   temperatureStabilizeAtStartup,1
;   temperatureHeatedBed,0
;   temperatureRelayBetweenLayers,0
;   temperatureRelayBetweenLoops,0
;   fanLayers,1,2
;   fanSpeeds,100,100
;   blipFanToFullPower,0
;   adjustSpeedForCooling,1
;   minSpeedLayerTime,15
;   minCoolingSpeedSlowdown,20
;   increaseFanForCooling,0
;   minFanLayerTime,45
;   maxCoolingFanSpeed,100
;   increaseFanForBridging,0
;   bridgingFanSpeed,100
;   use5D,1
;   relativeEdistances,0
;   allowEaxisZeroing,1
;   independentExtruderAxes,0
;   includeM10123,0
;   stickySupport,1
;   applyToolheadOffsets,0
;   gcodeXoffset,0
;   gcodeYoffset,0
;   gcodeZoffset,2.6
;   overrideMachineDefinition,0
;   machineTypeOverride,0
;   strokeXoverride,200
;   strokeYoverride,200
;   strokeZoverride,200
;   originOffsetXoverride,0
;   originOffsetYoverride,0
;   originOffsetZoverride,0
;   homeXdirOverride,-1
;   homeYdirOverride,-1
;   homeZdirOverride,-1
;   flipXoverride,1
;   flipYoverride,-1
;   flipZoverride,1
;   toolheadOffsets,0,0|0,0|0,0|0,0|0,0|0,0
;   overrideFirmwareConfiguration,0
;   firmwareTypeOverride,RepRap (Marlin/Repetier/Sprinter)
;   GPXconfigOverride,r2
;   baudRateOverride,115200
;   overridePrinterModels,0
;   printerModelsOverride
;   startingGcode,G28 ; home all axes
;   layerChangeGcode,
;   retractionGcode,
;   toolChangeGcode,
;   endingGcode,M104 S0 ; turn off extruder,M140 S0 ; turn off bed,M84 ; disable motors
;   exportFileFormat,gcode
;   celebration,0
;   celebrationSong,Random Song
;   postProcessing,
;   defaultSpeed,3600
;   outlineUnderspeed,0.5
;   solidInfillUnderspeed,0.8
;   supportUnderspeed,0.8
;   rapidXYspeed,4800
;   rapidZspeed,1000
;   minBridgingArea,50
;   bridgingExtraInflation,0
;   bridgingExtrusionMultiplier,1
;   bridgingSpeedMultiplier,1
;   useFixedBridgingAngle,0
;   fixedBridgingAngle,0
;   applyBridgingToPerimeters,0
;   filamentDiameters,1.75|1.75|1.75|1.75|1.75|1.75
;   filamentPricesPerKg,46|46|46|46|46|46
;   filamentDensities,1.25|1.25|1.25|1.25|1.25|1.25
;   useMinPrintHeight,0
;   minPrintHeight,0
;   useMaxPrintHeight,0
;   maxPrintHeight,0
;   useDiaphragm,0
;   diaphragmLayerInterval,20
;   robustSlicing,1
;   mergeAllIntoSolid,0
;   onlyRetractWhenCrossingOutline,1
;   retractBetweenLayers,1
;   useRetractionMinTravel,0
;   retractionMinTravel,3
;   retractWhileWiping,0
;   onlyWipeOutlines,1
;   avoidCrossingOutline,0
;   maxMovementDetourFactor,3
;   toolChangeRetractionDistance,12
;   toolChangeExtraRestartDistance,-0.5
;   toolChangeRetractionSpeed,600
;   externalThinWallType,0
;   internalThinWallType,2
;   thinWallAllowedOverlapPercentage,10
;   singleExtrusionMinLength,1
;   singleExtrusionMinPrintingWidthPercentage,50
;   singleExtrusionMaxPrintingWidthPercentage,200
;   singleExtrusionEndpointExtension,0.2
;   horizontalSizeCompensation,0
G90
M82
M106 S255
M104 S207 T0
M109 S207 T0
G28 ; home all axes
G92 E0
G1 E-1.0000 F1800
G1 Z2.690 F1000
; process Process1
; layer 1, Z = 0.090
T0
; tool H0.100 W0.480
; inner perimeter
G1 X88.458 Y75.174 F4800
G1 E0.0000 F540
G92 E0
G1 X88.558 Y75.058 E0.0035 F1350
G1 X88.674 Y74.958 E0.0071
G1 X88.805 Y74.878 E0.0106
G1 X88.947 Y74.819 E0.0141
G1 X89.097 Y74.783 E0.0176
G1 X89.278 Y74.769 E0.0218
G1 X110.722 Y74.769 E0.5139
G1 X110.903 Y74.783 E0.5181
G1 X111.053 Y74.819 E0.5216
G1 X111.194 Y74.878 E0.5252
G1 X111.326 Y74.958 E0.5287
G1 X111.442 Y75.058 E0.5322
G1 X111.542 Y75.174 E0.5357
G1 X111.622 Y75.305 E0.5393
G1 X111.681 Y75.447 E0.5428
G1 X111.717 Y75.597 E0.5463
G1 X111.731 Y75.778 E0.5505
G1 X111.731 Y124.222 E1.6622
G1 X111.717 Y124.403 E1.6664
G1 X111.681 Y124.553 E1.6699
G1 X111.622 Y124.695 E1.6735
G1 X111.542 Y124.826 E1.6770
G1 X111.442 Y124.942 E1.6805
G1 X111.326 Y125.042 E1.6840
G1 X111.195 Y125.122 E1.6876
G1 X111.053 Y125.181 E1.6911
G1 X110.903 Y125.217 E1.6946
G1 X110.722 Y125.231 E1.6988
G1 X89.278 Y125.231 E2.1909
G1 X89.097 Y125.217 E2.1951
G1 X88.947 Y125.181 E2.1986
G1 X88.805 Y125.122 E2.2021
G1 X88.674 Y125.042 E2.2057
G1 X88.558 Y124.942 E2.2092
G1 X88.458 Y124.826 E2.2127
G1 X88.378 Y124.695 E2.2163
G1 X88.319 Y124.553 E2.2198
G1 X88.283 Y124.403 E2.2233
G1 X88.269 Y124.222 E2.2275
G1 X88.269 Y75.778 E3.3392
G1 X88.283 Y75.597 E3.3434
G1 X88.319 Y75.447 E3.3469
G1 X88.378 Y75.305 E3.3505
G1 X88.458 Y75.174 E3.3540
; outer perimeter
G1 X88.068 Y74.891 F4800
G92 E0
G1 X88.217 Y74.717 E0.0053 F900
G1 X88.391 Y74.568 E0.0105
G1 X88.587 Y74.449 E0.0158
G1 X88.799 Y74.361 E0.0210
G1 X89.022 Y74.307 E0.0263
G1 X89.259 Y74.289 E0.0318
G1 X110.741 Y74.289 E0.5248
G1 X110.978 Y74.307 E0.5302
G1 X111.201 Y74.361 E0.5355
G1 X111.413 Y74.449 E0.5408
G1 X111.609 Y74.568 E0.5460
G1 X111.783 Y74.717 E0.5513
G1 X111.932 Y74.891 E0.5565
G1 X112.051 Y75.087 E0.5618
G1 X112.139 Y75.299 E0.5671
G1 X112.193 Y75.522 E0.5723
G1 X112.211 Y75.759 E0.5778
G1 X112.211 Y124.241 E1.6904
G1 X112.193 Y124.478 E1.6959
G1 X112.139 Y124.701 E1.7011
G1 X112.051 Y124.913 E1.7064
G1 X111.932 Y125.108 E1.7117
G1 X111.783 Y125.283 E1.7169
G1 X111.608 Y125.432 E1.7222
G1 X111.413 Y125.551 E1.7274
G1 X111.201 Y125.639 E1.7327
G1 X110.978 Y125.693 E1.7380
G1 X110.741 Y125.711 E1.7434
G1 X89.259 Y125.711 E2.2364
G1 X89.022 Y125.693 E2.2419
G1 X88.799 Y125.639 E2.2472
G1 X88.587 Y125.551 E2.2524
G1 X88.391 Y125.432 E2.2577
G1 X88.217 Y125.283 E2.2629
G1 X88.068 Y125.108 E2.2682
G1 X87.949 Y124.913 E2.2735
G1 X87.861 Y124.701 E2.2787
G1 X87.807 Y124.478 E2.2840
G1 X87.789 Y124.241 E2.2895
G1 X87.789 Y75.759 E3.4021
G1 X87.807 Y75.522 E3.4076
G1 X87.861 Y75.299 E3.4128
G1 X87.949 Y75.087 E3.4181
G1 X88.068 Y74.891 E3.4233
; inner perimeter
G1 X91.601 Y84.831 F4800
G92 E0
G1 X90.277 Y85.263 E0.0320 F1350
G1 X90.276 Y106.307 E0.5149
G1 X90.329 Y107.304 E0.5378
G1 X90.488 Y108.309 E0.5612
G1 X90.751 Y109.293 E0.5845
G1 X91.116 Y110.243 E0.6079
G1 X91.578 Y111.150 E0.6313
G1 X92.133 Y112.004 E0.6546
G1 X92.773 Y112.795 E0.6780
G1 X93.493 Y113.514 E0.7013
G1 X94.284 Y114.155 E0.7247
G1 X95.138 Y114.709 E0.7481
G1 X96.045 Y115.171 E0.7714
G1 X96.995 Y115.536 E0.7948
G1 X97.978 Y115.800 E0.8181
G1 X98.984 Y115.959 E0.8415
G1 X100.000 Y116.012 E0.8649
G1 X101.016 Y115.959 E0.8882
G1 X102.022 Y115.800 E0.9116
G1 X103.005 Y115.536 E0.9349
G1 X103.955 Y115.171 E0.9583
G1 X104.862 Y114.709 E0.9817
G1 X105.716 Y114.155 E1.0050
G1 X106.507 Y113.514 E1.0284
G1 X107.227 Y112.795 E1.0517
G1 X107.867 Y112.004 E1.0751
G1 X108.422 Y111.150 E1.0985
G1 X108.884 Y110.243 E1.1218
G1 X109.249 Y109.293 E1.1452
G1 X109.512 Y108.309 E1.1685
G1 X109.671 Y107.304 E1.1919
G1 X109.724 Y106.307 E1.2148
G1 X109.723 Y85.263 E1.6978
G1 X108.399 Y84.831 E1.7297
G1 X106.759 Y84.378 E1.7688
G1 X105.091 Y84.023 E1.8079
G1 X103.404 Y83.768 E1.8471
G1 X101.705 Y83.615 E1.8862
G1 X100.000 Y83.564 E1.9254
G1 X98.295 Y83.615 E1.9645
G1 X96.596 Y83.768 E2.0037
G1 X94.909 Y84.023 E2.0428
G1 X93.241 Y84.378 E2.0820
G1 X91.601 Y84.831 E2.1210
; outer perimeter
G1 X91.740 Y85.290 F4800
G92 E0
G1 X90.757 Y85.611 E0.0237 F900
G1 X90.756 Y106.294 E0.4984
G1 X90.807 Y107.254 E0.5204
G1 X90.958 Y108.210 E0.5426
G1 X91.209 Y109.144 E0.5649
G1 X91.555 Y110.047 E0.5871
G1 X91.995 Y110.910 E0.6093
G1 X92.522 Y111.721 E0.6315
G1 X93.130 Y112.473 E0.6537
G1 X93.815 Y113.157 E0.6759
G1 X94.567 Y113.766 E0.6981
G1 X95.378 Y114.293 E0.7203
G1 X96.240 Y114.732 E0.7425
G1 X97.143 Y115.079 E0.7647
G1 X98.078 Y115.330 E0.7869
G1 X99.034 Y115.481 E0.8091
G1 X100.000 Y115.531 E0.8313
G1 X100.966 Y115.481 E0.8535
G1 X101.922 Y115.330 E0.8757
G1 X102.857 Y115.079 E0.8979
G1 X103.760 Y114.732 E0.9201
G1 X104.622 Y114.293 E0.9423
G1 X105.433 Y113.766 E0.9645
G1 X106.185 Y113.157 E0.9868
G1 X106.870 Y112.473 E1.0090
G1 X107.478 Y111.721 E1.0312
G1 X108.005 Y110.910 E1.0534
G1 X108.445 Y110.047 E1.0756
G1 X108.791 Y109.144 E1.0978
G1 X109.042 Y108.210 E1.1200
G1 X109.193 Y107.254 E1.1422
G1 X109.244 Y106.294 E1.1642
G1 X109.243 Y85.611 E1.6389
G1 X108.260 Y85.290 E1.6626
G1 X106.645 Y84.844 E1.7011
G1 X105.005 Y84.495 E1.7396
G1 X103.347 Y84.245 E1.7781
G1 X101.676 Y84.094 E1.8165
G1 X100.000 Y84.044 E1.8550
G1 X98.324 Y84.094 E1.8935
G1 X96.653 Y84.245 E1.9320
G1 X94.995 Y84.495 E1.9705
G1 X93.355 Y84.844 E2.0090
G1 X91.740 Y85.290 E2.0474
G92 E0
G1 E-1.0000 F1800
; solid layer
G1 X110.131 Y85.693 F4800
G1 E0.0000 F1800
G92 E0
G1 X111.323 Y86.886 E0.0387 F1440
G1 X111.323 Y87.565 E0.0543
G1 X110.131 Y86.372 E0.0930
G1 X110.131 Y87.051 E0.1086
G1 X111.323 Y88.243 E0.1473
G1 X111.323 Y88.922 E0.1628
G1 X110.131 Y87.730 E0.2015
G1 X110.131 Y88.409 E0.2171
G1 X111.323 Y89.601 E0.2558
G1 X111.323 Y90.280 E0.2714
G1 X110.131 Y89.088 E0.3101
G1 X110.131 Y89.766 E0.3257
G1 X111.323 Y90.959 E0.3644
G1 X111.323 Y91.637 E0.3799
G1 X110.131 Y90.445 E0.4186
G1 X110.131 Y91.124 E0.4342
G1 X111.323 Y92.316 E0.4729
G1 X111.323 Y92.995 E0.4885
G1 X110.131 Y91.803 E0.5272
G1 X110.131 Y92.482 E0.5428
G1 X111.323 Y93.674 E0.5815
G1 X111.323 Y94.353 E0.5970
G1 X110.131 Y93.161 E0.6357
G1 X110.131 Y93.839 E0.6513
G1 X111.323 Y95.032 E0.6900
G1 X111.323 Y95.710 E0.7056
G1 X110.131 Y94.518 E0.7443
G1 X110.131 Y95.197 E0.7598
G1 X111.323 Y96.389 E0.7985
G1 X111.323 Y97.068 E0.8141
G1 X110.131 Y95.876 E0.8528
G1 X110.131 Y96.555 E0.8684
G1 X111.323 Y97.747 E0.9071
G1 X111.323 Y98.426 E0.9227
G1 X110.131 Y97.234 E0.9613
G1 X110.131 Y97.912 E0.9769
G1 X111.323 Y99.105 E1.0156
G1 X111.323 Y99.783 E1.0312
G1 X110.131 Y98.591 E1.0699
G1 X110.131 Y99.270 E1.0855
G1 X111.323 Y100.462 E1.1241
G1 X111.323 Y101.141 E1.1397
G1 X110.131 Y99.949 E1.1784
G1 X110.131 Y100.628 E1.1940
G1 X111.323 Y101.820 E1.2327
G1 X111.323 Y102.499 E1.2483
G1 X110.131 Y101.307 E1.2869
G1 X110.131 Y101.986 E1.3025
G1 X111.323 Y103.177 E1.3412
G1 X111.323 Y103.856 E1.3568
G1 X110.131 Y102.664 E1.3955
G1 X110.131 Y103.343 E1.4110
G1 X111.323 Y104.535 E1.4497
G1 X111.323 Y105.214 E1.4653
G1 X110.131 Y104.022 E1.5040
G1 X110.131 Y104.701 E1.5196
G1 X111.323 Y105.893 E1.5583
G1 X111.323 Y106.572 E1.5738
G1 X110.132 Y105.380 E1.6125
G1 X110.132 Y106.059 E1.6281
G1 X111.323 Y107.250 E1.6668
G1 X111.323 Y107.929 E1.6824
G1 X110.111 Y106.716 E1.7217
G1 X110.078 Y107.347 E1.7362
G1 X110.075 Y107.360 E1.7365
G1 X111.323 Y108.608 E1.7770
G1 X111.323 Y109.287 E1.7926
G1 X109.983 Y107.946 E1.8361
G1 X109.912 Y108.394 E1.8465
G1 X109.878 Y108.520 E1.8495
G1 X111.323 Y109.966 E1.8964
G1 X111.323 Y110.645 E1.9120
G1 X109.734 Y109.056 E1.9636
G1 X109.637 Y109.419 E1.9722
G1 X109.577 Y109.577 E1.9761
G1 X111.323 Y111.323 E2.0328
G1 X111.323 Y112.002 E2.0483
G1 X109.388 Y110.067 E2.1111
G1 X109.257 Y110.409 E2.1196
G1 X109.188 Y110.545 E2.1231
G1 X111.323 Y112.681 E2.1924
G1 X111.323 Y113.360 E2.2080
G1 X108.959 Y110.995 E2.2847
G1 X108.775 Y111.354 E2.2940
G1 X108.722 Y111.437 E2.2962
G1 X111.323 Y114.039 E2.3807
G1 X111.323 Y114.717 E2.3962
G1 X108.454 Y111.849 E2.4894
G1 X108.198 Y112.244 E2.5002
G1 X108.186 Y112.259 E2.5006
G1 X111.323 Y115.396 E2.6024
G1 X111.323 Y116.075 E2.6180
G1 X107.882 Y112.634 E2.7297
G1 X107.578 Y113.009 E2.7408
G1 X111.323 Y116.754 E2.8623
G1 X111.323 Y117.433 E2.8779
G1 X107.244 Y113.354 E3.0103
G1 X106.905 Y113.693 E3.0213
G1 X111.323 Y118.112 E3.1647
G1 X111.323 Y118.790 E3.1803
G1 X106.543 Y114.010 E3.3354
G1 X106.168 Y114.314 E3.3465
G1 X111.323 Y119.469 E3.5138
G1 X111.323 Y120.148 E3.5294
G1 X105.777 Y114.602 E3.7094
G1 X105.365 Y114.869 E3.7207
G1 X111.323 Y120.827 E3.9140
G1 X111.323 Y121.506 E3.9296
G1 X104.944 Y115.126 E4.1367
G1 X104.494 Y115.355 E4.1483
G1 X111.323 Y122.185 E4.3699
G1 X111.323 Y122.863 E4.3855
G1 X104.037 Y115.577 E4.6220
G1 X103.547 Y115.765 E4.6340
G1 X111.323 Y123.542 E4.8864
G1 X111.323 Y124.206 E4.9017
G1 X111.322 Y124.220 E4.9020
G1 X103.049 Y115.947 E5.1705
G1 X102.514 Y116.090 E5.1832
G1 X111.112 Y124.688 E5.4623
G1 X111.085 Y124.711 E5.4631
G1 X111.009 Y124.758 E5.4651
G1 X110.926 Y124.792 E5.4672
G1 X110.839 Y124.813 E5.4692
G1 X110.706 Y124.823 E5.4723
G1 X110.568 Y124.823 E5.4755
G1 X101.966 Y116.222 E5.7546
G1 X101.380 Y116.314 E5.7683
G1 X109.889 Y124.823 E6.0444
G1 X109.210 Y124.823 E6.0600
G1 X100.768 Y116.380 E6.3340
G1 X100.123 Y116.414 E6.3488
G1 X108.532 Y124.823 E6.6218
G1 X107.853 Y124.823 E6.6373
G1 X99.420 Y116.390 E6.9110
G1 X98.941 Y116.365 E6.9220
G1 X98.673 Y116.323 E6.9283
G1 X107.174 Y124.823 E7.2041
G1 X106.495 Y124.823 E7.2197
G1 X97.863 Y116.191 E7.4999
G1 X96.936 Y115.943 E7.5219
G1 X105.816 Y124.823 E7.8101
G1 X105.138 Y124.823 E7.8257
G1 X95.838 Y115.524 E8.1275
G1 X89.525 Y124.823 F4800
G92 E0
G1 X88.677 Y123.975 E0.0275 F1440
G1 X88.677 Y123.297 E0.0431
G1 X90.203 Y124.823 E0.0927
G1 X90.882 Y124.823 E0.1082
G1 X88.677 Y122.618 E0.1798
G1 X88.677 Y121.939 E0.1954
G1 X91.561 Y124.823 E0.2890
G1 X92.240 Y124.823 E0.3046
G1 X88.677 Y121.260 E0.4202
G1 X88.677 Y120.581 E0.4358
G1 X92.919 Y124.823 E0.5735
G1 X93.598 Y124.823 E0.5891
G1 X88.677 Y119.902 E0.7488
